X: 14738
T: Gan Ainm
R: polka
M: 2/4
K: Gminor
|:Bc|d2 e2|dg bd|cf af|gf/g/ a/g/f/e/|
d2 e2|dg bd|cf af|g2:|
|:fg|af df|gd Bd|d/e/f/e/ d/c/B/A/|GF fg|
af df|gf e/f/^g/=g/|ac e2|d/c/B/c/:|
|:d2|B2 d2|e2 f2|g/a/g/f/ eg|fB B2|
c/d/c/B/ A/B/A/G/|F/G/F/D/ DC|E/^D/E/F/ G/F/G/A/|B2:|

